X:1
T:Dewitt, CM
T:Dewitt, CM
T:Uzziah ChristopherBurnap, 1870
T:Public Domain Courtesy of the Cyber Hymnal™
C:Uzziah ChristopherBurnap, 1870
Z:Public Domain
Z:Courtesy of the Cyber Hymnal™
%%score ( 1 2 ) ( 3 4 )
L:1/8
Q:1/4=106
M:4/4
K:C
V:1 treble 
V:2 treble 
V:3 bass 
V:4 bass 
V:1
 E2 | A2 B2 c2 (BA) | C2 D2 E2 [B,E]2 | [EA]2 (AB) [Ec]2 [Ad]2 | [^Ge]6 [=Ge]2 | %5
 [Gd]2 [Ge]2 [Ec]2 [GB]2 | [FA]2 (BA) [E^G]2 [EG]2 | [EA]2 (AB) [Ec]2 [DB]2 | [CA]6 |] %9
V:2
 E2 | A2 B2 c2 x2 | C2 D2 E2 x2 | x2 E2 x4 | x8 | x8 | x2 F2 x4 | x2 F2 x4 | x6 |] %9
V:3
 E,2 | A,2 B,2 C2 x2 | C,2 D,2 E,2 ^G,2 | [C,A,]2 ([C,A,][E,^G,]) A,2 [F,A,]2 | [E,B,]6 [C,C]2 | %5
 [G,B,]2 [C,C]2 [A,C]2 [E,E]2 | [F,C]2 [D,D]2 [E,B,]2 B,2 | [C,A,]2 [D,A,]2 [E,A,]2 [E,^G,]2 | %8
 [A,,A,]6 |] %9
V:4
 E,2 | A,2 B,2 C2 (B,A,) | C,2 D,2 E,2 (E,D,) | x4 A,2 x2 | x8 | x8 | x6 (E,D,) | x8 | x6 |] %9

